src/assets/logos/typescript.svg

<svg width="100" height="100" viewBox="0 0 100 100" fill="none" xmlns="http://www.w3.org/2000/svg">
<path d="M0 0H100V100H0V0Z" fill="#017ACB"/>
<path d="M48.0157 37.0312H52.8126V45.3125H39.8438V82.1562L39.5 82.25C39.0313 82.375 32.8594 82.375 31.5313 82.2344L30.4688 82.1406V45.3125H17.5V37.0312L21.6094 36.9844C23.8594 36.9531 29.6406 36.9531 34.4532 36.9844C39.2657 37.0156 45.3594 37.0312 48.0157 37.0312V37.0312ZM84.6251 78.25C82.7189 80.2656 80.672 81.3906 77.2657 82.3125C75.7814 82.7187 75.5313 82.7344 72.1876 82.7187C68.8438 82.7031 68.5782 82.7031 66.9532 82.2812C62.7501 81.2031 59.3594 79.0937 57.0469 76.1094C56.3907 75.2656 55.3126 73.5156 55.3126 73.2969C55.3126 73.2344 55.4688 73.0937 55.6719 73C55.8751 72.9062 56.2969 72.6406 56.6407 72.4375C56.9844 72.2344 57.6094 71.8594 58.0313 71.6406C58.4532 71.4219 59.6719 70.7031 60.7345 70.0625C61.797 69.4219 62.7657 68.9062 62.8751 68.9062C62.9845 68.9062 63.1876 69.125 63.3438 69.3906C64.2813 70.9687 66.4688 72.9844 68.0157 73.6719C68.9688 74.0781 71.0782 74.5312 72.0938 74.5312C73.0313 74.5312 74.7501 74.125 75.672 73.7031C76.6563 73.25 77.1564 72.7969 77.7501 71.8906C78.1564 71.25 78.2032 71.0781 78.1876 69.8594C78.1876 68.7344 78.1251 68.4219 77.8126 67.9062C76.9376 66.4687 75.7501 65.7187 70.9376 63.5937C65.9688 61.3906 63.7345 60.0781 61.9219 58.3125C60.5782 57 60.3126 56.6406 59.4688 55C58.3751 52.8906 58.2344 52.2031 58.2188 49.0625C58.2032 46.8594 58.2501 46.1406 58.4844 45.3906C58.8126 44.2656 59.8751 42.0937 60.3594 41.5469C61.3594 40.375 61.7188 40.0156 62.422 39.4375C64.547 37.6875 67.8595 36.5312 71.0313 36.4219C71.3907 36.4219 72.5782 36.4844 73.6876 36.5625C76.8751 36.8281 79.047 37.6094 81.1407 39.2812C82.7189 40.5312 85.1095 43.4688 84.8751 43.8594C84.7189 44.0938 78.4845 48.25 78.0782 48.375C77.8282 48.4531 77.6564 48.3594 77.3126 47.9531C75.1876 45.4062 74.3282 44.8594 72.2657 44.7344C70.797 44.6406 70.0157 44.8125 69.0313 45.4687C68.0001 46.1562 67.5001 47.2031 67.5001 48.6562C67.5157 50.7812 68.3282 51.7812 71.3282 53.2656C73.2657 54.2187 74.922 55 75.047 55C75.2345 55 79.2501 57 80.297 57.625C85.172 60.4844 87.1564 63.4219 87.672 68.4844C88.047 72.2969 86.9689 75.7812 84.6251 78.25V78.25Z" fill="white"/>
</svg>

<svg width="100" height="100" fill="none" xmlns="http://www.w3.org/2000/svg"><path d="M0 0h100v100H0V0z" fill="#017ACB"/><path d="M48.016 37.031h4.797v8.282h-12.97v36.843l-.343.094c-.469.125-6.64.125-7.969-.016l-1.062-.093V45.312H17.5v-8.28l4.11-.048c2.25-.03 8.03-.03 12.843 0 4.813.032 10.906.047 13.563.047zm36.61 41.219c-1.907 2.016-3.954 3.14-7.36 4.063-1.485.406-1.735.421-5.078.406-3.344-.016-3.61-.016-5.235-.438-4.203-1.078-7.594-3.187-9.906-6.172-.656-.843-1.734-2.593-1.734-2.812 0-.063.156-.203.359-.297.203-.094.625-.36.969-.563.343-.203.968-.578 1.39-.796.422-.22 1.64-.938 2.703-1.579 1.063-.64 2.032-1.156 2.141-1.156.11 0 .313.219.469.485.937 1.578 3.125 3.593 4.672 4.28.953.407 3.062.86 4.078.86.937 0 2.656-.406 3.578-.828.984-.453 1.484-.906 2.078-1.812.406-.641.453-.813.438-2.032 0-1.125-.063-1.437-.375-1.953-.875-1.437-2.063-2.187-6.875-4.312-4.97-2.203-7.204-3.516-9.016-5.282C60.578 57 60.312 56.642 59.469 55c-1.094-2.11-1.235-2.797-1.25-5.938-.016-2.203.031-2.921.265-3.671.329-1.125 1.391-3.297 1.875-3.844 1-1.172 1.36-1.531 2.063-2.11 2.125-1.75 5.438-2.906 8.61-3.015.359 0 1.546.062 2.656.14 3.187.266 5.359 1.047 7.453 2.72 1.578 1.25 3.968 4.187 3.734 4.577-.156.235-6.39 4.391-6.797 4.516-.25.078-.422-.016-.765-.422-2.125-2.547-2.985-3.094-5.047-3.219-1.469-.093-2.25.078-3.235.735-1.03.687-1.53 1.734-1.53 3.187.015 2.125.827 3.125 3.827 4.61 1.938.953 3.594 1.734 3.719 1.734.188 0 4.203 2 5.25 2.625 4.875 2.86 6.86 5.797 7.375 10.86.375 3.812-.703 7.296-3.047 9.765z" fill="#fff"/></svg>
